X:98
T:Johnny McGill
S:American Veteran Fifer #98
M:6/8
L:1/8
Q:1/8=300
K:G 
%%MIDI program 72
%%MIDI transpose 8
%%MIDI ratio 3 1
g | dBB BAG | dBB B2g | dBB BAB | GEE E2g |
dBB BAG | dBB BAG | A3 BAB | GEE E2 :|
|: d | g3 aga | bge dBG | g3 aga | bge ega |
bgb afa | gef g2e | dBB BAB | GEE E2 :|



